public/images/weather/animated/10d.svg

<svg xmlns="http://www.w3.org/2000/svg" xmlns:xlink="http://www.w3.org/1999/xlink" viewBox="0 0 512 512">
    <defs>
        <clipPath id="a">
            <path d="M351.5,308a56,56,0,0,0-56-56c-.85,0-1.68.09-2.53.13A83.7,83.7,0,0,0,211.5,148V0H447.66V308Z" fill="none">
                <animateTransform
                    attributeName="transform"
                    additive="sum"
                    type="translate"
                    values="-18 0; 18 0; -18 0"
                    dur="6s"
                    repeatCount="indefinite"/>
            </path>
        </clipPath>
        <clipPath id="b">
            <path d="M276,148a83.84,83.84,0,0,0-71.4,39.92A55.91,55.91,0,0,0,120,236a56.56,56.56,0,0,0,.8,9.08A60,60,0,0,0,72,304H0V0H276Z" fill="none">
                <animateTransform
                    attributeName="transform"
                    additive="sum"
                    type="translate"
                    values="-18 0; 18 0; -18 0"
                    dur="6s"
                    repeatCount="indefinite"/>
            </path>
        </clipPath>
        <symbol id="d" viewBox="0 0 193 193">
            <!-- sun-core -->
            <circle cx="96.5" cy="96.5" r="40" fill="none" stroke="#fbbf24" stroke-miterlimit="10" stroke-width="9"/>

            <!-- sun-rays -->
            <path d="M96.5,29.88V4.5m0,184V163.12M143.61,49.39l17.94-17.94M31.45,161.55l17.94-17.94m0-94.22L31.45,31.45m130.1,130.1-17.94-17.94M4.5,96.5H29.88m158.62,0H163.12" fill="none" stroke="#fbbf24" stroke-linecap="round" stroke-miterlimit="10" stroke-width="9">
                <animateTransform
                    attributeName="transform"
                    additive="sum"
                    type="rotate"
                    values="0 96.5 96.5; 45 96.5 96.5"
                    dur="6s"
                    repeatCount="indefinite"/>
            </path>
        </symbol>
        <symbol id="f" viewBox="0 0 214.26 140.12">
            <path d="M7.5,100.18a32.44,32.44,0,0,0,32.44,32.44H169.69v-.12c.77.05,1.53.12,2.31.12a34.75,34.75,0,0,0,6.49-68.89A32.38,32.38,0,0,0,130,30.62,48.58,48.58,0,0,0,41.4,67.81c-.49,0-1-.07-1.46-.07A32.44,32.44,0,0,0,7.5,100.18Z" fill="none" stroke="#94a3b8" stroke-linejoin="round" stroke-width="15"/>
        </symbol>
        <symbol id="g" viewBox="0 0 359 231">
            <path d="M295.5,223.5a56,56,0,0,0,0-112c-.85,0-1.68.09-2.53.13A83.9,83.9,0,0,0,140.1,47.42,55.91,55.91,0,0,0,55.5,95.5a56.56,56.56,0,0,0,.8,9.08A60,60,0,0,0,67.5,223.5" fill="none" stroke="#475569" stroke-linecap="round" stroke-linejoin="round" stroke-width="15"/>
        </symbol>
        <symbol id="e" viewBox="0 0 447.66 371.5" overflow="visible">
            <g clip-path="url(#a)">
                <!-- dark-cloud -->
                <use width="214.26" height="140.12" transform="translate(195.51 165.01)" xlink:href="#f">
                    <animateTransform
                        attributeName="transform"
                        additive="sum"
                        type="translate"
                        values="-9 0; 9 0; -9 0"
                        dur="6s"
                        repeatCount="indefinite"/>
                </use>
            </g>

            <!-- black-cloud -->
            <use width="359" height="231" transform="translate(0 140.5)" xlink:href="#g">
                <animateTransform
                    attributeName="transform"
                    additive="sum"
                    type="translate"
                    values="-18 0; 18 0; -18 0"
                    dur="6s"
                    repeatCount="indefinite"/>
            </use>
        </symbol>
        <symbol id="c" viewBox="0 0 512 371.5">
            <g clip-path="url(#b)">
                <use width="193" height="193" transform="translate(57.5 110.5)" xlink:href="#d"/>
            </g>
            <use width="447.66" height="371.5" transform="translate(64.34)" xlink:href="#e"/>
        </symbol>
        <symbol id="h" viewBox="0 0 128 56" overflow="visible">
            <!-- raindrop-1 -->
            <path d="M8,56a8,8,0,0,1-8-8V8A8,8,0,0,1,16,8V48A8,8,0,0,1,8,56Z" fill="#0a5ad4" opacity="0">
                <animateTransform
                    id="x1"
                    attributeName="transform"
                    additive="sum"
                    type="translate"
                    values="0 -60; 0 60"
                    begin="0s; x1.end+.33s"
                    dur=".67s"/>

                <animate
                    id="y1"
                    attributeName="opacity"
                    values="0; 1; 0"
                    begin="0s; y1.end+.33s"
                    dur=".67s"
                    keyTimes="0; .25; 1"/>
            </path>

            <!-- raindrop-2 -->
            <path d="M64,56a8,8,0,0,1-8-8V8A8,8,0,0,1,72,8V48A8,8,0,0,1,64,56Z" fill="#0a5ad4" opacity="0">
                <animateTransform
                    id="x2"
                    attributeName="transform"
                    additive="sum"
                    type="translate"
                    values="0 -60; 0 60"
                    begin=".33s; x2.end+.33s"
                    dur=".67s"/>

                <animate
                    id="y2"
                    attributeName="opacity"
                    values="0; 1; 0"
                    begin=".33s; y2.end+.33s"
                    dur=".67s"
                    keyTimes="0; .25; 1"/>
            </path>

            <!-- raindrop-3 -->
            <path d="M120,56a8,8,0,0,1-8-8V8a8,8,0,0,1,16,0V48A8,8,0,0,1,120,56Z" fill="#0a5ad4" opacity="0">
                <animateTransform
                    id="x3"
                    attributeName="transform"
                    additive="sum"
                    type="translate"
                    values="0 -60; 0 60"
                    begin="-.33s; x3.end+.33s"
                    dur=".67s"/>

                <animate
                    id="y3"
                    attributeName="opacity"
                    values="0; 1; 0"
                    begin="-.33s; y3.end+.33s"
                    dur=".67s"
                    keyTimes="0; .25; 1"/>
            </path>
        </symbol>
    </defs>
    <use width="512" height="371.5" xlink:href="#c"/>
    <use width="128" height="56" transform="translate(192 344)" xlink:href="#h"/>
</svg>

<svg xmlns="http://www.w3.org/2000/svg" xmlns:xlink="http://www.w3.org/1999/xlink" viewBox="0 0 512 512"><defs><symbol id="d" viewBox="0 0 193 193"><circle cx="96.5" cy="96.5" r="40" fill="none" stroke="#fbbf24" stroke-miterlimit="10" stroke-width="9"/><path fill="none" stroke="#fbbf24" stroke-linecap="round" stroke-miterlimit="10" stroke-width="9" d="M96.5 29.9V4.5m0 184v-25.4m47.1-113.7 18-18M31.4 161.6l18-18m0-94.2-18-18m130.2 130.2-18-18M4.5 96.5h25.4m158.6 0h-25.4"><animateTransform additive="sum" attributeName="transform" dur="6s" repeatCount="indefinite" type="rotate" values="0 96.5 96.5; 45 96.5 96.5"/></path></symbol><symbol id="f" viewBox="0 0 214.3 140.1"><path fill="none" stroke="#94a3b8" stroke-linejoin="round" stroke-width="15" d="M7.5 100.2a32.4 32.4 0 0032.4 32.4h129.8v-.1l2.3.1a34.8 34.8 0 006.5-68.9 32.4 32.4 0 00-48.5-33 48.6 48.6 0 00-88.6 37.1h-1.5a32.4 32.4 0 00-32.4 32.4Z"/></symbol><symbol id="g" viewBox="0 0 359 231"><path fill="none" stroke="#475569" stroke-linecap="round" stroke-linejoin="round" stroke-width="15" d="M295.5 223.5a56 56 0 000-112l-2.5.1a83.9 83.9 0 00-153-64.2 56 56 0 00-84.6 48.1 56.6 56.6 0 00.8 9 60 60 0 0011.2 119"/></symbol><symbol id="e" overflow="visible" viewBox="0 0 447.7 371.5"><g clip-path="url(#a)"><use xlink:href="#f" width="214.3" height="140.1" transform="translate(195.51 165.01)"><animateTransform additive="sum" attributeName="transform" dur="6s" repeatCount="indefinite" type="translate" values="-9 0; 9 0; -9 0"/></use></g><use xlink:href="#g" width="359" height="231" transform="translate(0 140.5)"><animateTransform additive="sum" attributeName="transform" dur="6s" repeatCount="indefinite" type="translate" values="-18 0; 18 0; -18 0"/></use></symbol><symbol id="c" viewBox="0 0 512 371.5"><g clip-path="url(#b)"><use xlink:href="#d" width="193" height="193" transform="translate(57.5 110.5)"/></g><use xlink:href="#e" width="447.7" height="371.5" transform="translate(64.34)"/></symbol><symbol id="h" overflow="visible" viewBox="0 0 128 56"><path fill="#0a5ad4" d="M8 56a8 8 0 01-8-8V8a8 8 0 0116 0v40a8 8 0 01-8 8Z" opacity="0"><animateTransform id="x1" additive="sum" attributeName="transform" begin="0s; x1.end+.33s" dur=".67s" type="translate" values="0 -60; 0 60"/><animate id="y1" attributeName="opacity" begin="0s; y1.end+.33s" dur=".67s" keyTimes="0; .25; 1" values="0; 1; 0"/></path><path fill="#0a5ad4" d="M64 56a8 8 0 01-8-8V8a8 8 0 0116 0v40a8 8 0 01-8 8Z" opacity="0"><animateTransform id="x2" additive="sum" attributeName="transform" begin=".33s; x2.end+.33s" dur=".67s" type="translate" values="0 -60; 0 60"/><animate id="y2" attributeName="opacity" begin=".33s; y2.end+.33s" dur=".67s" keyTimes="0; .25; 1" values="0; 1; 0"/></path><path fill="#0a5ad4" d="M120 56a8 8 0 01-8-8V8a8 8 0 0116 0v40a8 8 0 01-8 8Z" opacity="0"><animateTransform id="x3" additive="sum" attributeName="transform" begin="-.33s; x3.end+.33s" dur=".67s" type="translate" values="0 -60; 0 60"/><animate id="y3" attributeName="opacity" begin="-.33s; y3.end+.33s" dur=".67s" keyTimes="0; .25; 1" values="0; 1; 0"/></path></symbol><clipPath id="a"><path fill="none" d="M351.5 308a56 56 0 00-56-56l-2.5.1A83.7 83.7 0 00211.5 148V0h236.2v308Z"><animateTransform additive="sum" attributeName="transform" dur="6s" repeatCount="indefinite" type="translate" values="-18 0; 18 0; -18 0"/></path></clipPath><clipPath id="b"><path fill="none" d="M276 148a83.8 83.8 0 00-71.4 40 56 56 0 00-84.6 48 56.6 56.6 0 00.8 9A60 60 0 0072 304H0V0h276Z"><animateTransform additive="sum" attributeName="transform" dur="6s" repeatCount="indefinite" type="translate" values="-18 0; 18 0; -18 0"/></path></clipPath></defs><use xlink:href="#c" width="512" height="371.5"/><use xlink:href="#h" width="128" height="56" transform="translate(192 344)"/></svg>
